X:20
T:Young Jenny's Delight
M:2/4
L:1/8
B:Thompson's Compleat Collection of 200 Favourite Country Dances, vol. 1 (London, 1757)
Z:Transcribed and edited by Fynnian Titford-Mock, 2007
Z:abc's:AK/Fiddler's Companion
K:D
D2 FD|GE E2|D2 FD|CE E2|D2 FD|GEEc|dFEc|d2D2:|
|:d2 fd|gdbd|c2 ec|fcac|B2 dB|eBgB|Ac/d/ ec|Ae "tr"e2|
D2 FD|GE "tr"E2|D2 FD|CE "tr"E2|D2 FD|G(EE)c|dFEc|d2 D2:|

